communes/2138.svg

<?xml version="1.0" encoding="UTF-8" standalone="no"?>
<svg
   xmlns:dc="http://purl.org/dc/elements/1.1/"
   xmlns:cc="http://creativecommons.org/ns#"
   xmlns:rdf="http://www.w3.org/1999/02/22-rdf-syntax-ns#"
   xmlns:svg="http://www.w3.org/2000/svg"
   xmlns="http://www.w3.org/2000/svg"
   xmlns:xlink="http://www.w3.org/1999/xlink"
   xmlns:sodipodi="http://sodipodi.sourceforge.net/DTD/sodipodi-0.dtd"
   xmlns:inkscape="http://www.inkscape.org/namespaces/inkscape"
   height="763"
   width="603"
   version="1.0"
   id="svg20"
   sodipodi:version="0.32"
   inkscape:version="0.44.1"
   sodipodi:docname="2138.svg">
  <metadata
     id="metadata31">
    <rdf:RDF>
      <cc:Work
         rdf:about="">
        <dc:format>image/svg+xml</dc:format>
        <dc:type
           rdf:resource="http://purl.org/dc/dcmitype/StillImage" />
        <dc:date />
        <dc:creator>
          <cc:Agent>
            <dc:title />
          </cc:Agent>
        </dc:creator>
        <cc:license
           rdf:resource="http://creativecommons.org/licenses/GPL/2.0/" />
        <dc:coverage />
        <dc:description />
        <dc:subject>
          <rdf:Bag />
        </dc:subject>
        <dc:language />
        <dc:title />
      </cc:Work>
      <cc:License
         rdf:about="http://creativecommons.org/licenses/GPL/2.0/">
        <cc:permits
           rdf:resource="http://web.resource.org/cc/Reproduction" />
        <cc:permits
           rdf:resource="http://web.resource.org/cc/Distribution" />
        <cc:requires
           rdf:resource="http://web.resource.org/cc/Notice" />
        <cc:permits
           rdf:resource="http://web.resource.org/cc/DerivativeWorks" />
        <cc:requires
           rdf:resource="http://web.resource.org/cc/ShareAlike" />
        <cc:requires
           rdf:resource="http://web.resource.org/cc/SourceCode" />
      </cc:License>
    </rdf:RDF>
  </metadata>
  <defs
     id="defs29">
    <linearGradient
       id="linearGradient2893">
      <stop
         style="stop-color:#ffffff;stop-opacity:0.3137255;"
         offset="0"
         id="stop2895" />
      <stop
         id="stop2897"
         offset="0.19"
         style="stop-color:#ffffff;stop-opacity:0.25098041;" />
      <stop
         style="stop-color:#6b6b6b;stop-opacity:0.1254902;"
         offset="0.60000002"
         id="stop2901" />
      <stop
         style="stop-color:#000000;stop-opacity:0.1254902;"
         offset="1"
         id="stop2899" />
    </linearGradient>
    <linearGradient
       id="linearGradient2955">
      <stop
         style="stop-color:white;stop-opacity:0;"
         offset="0"
         id="stop2965" />
      <stop
         style="stop-color:black;stop-opacity:0.64583331;"
         offset="1"
         id="stop2959" />
    </linearGradient>
    <radialGradient
       inkscape:collect="always"
       xlink:href="#linearGradient2893"
       id="radialGradient3236"
       gradientUnits="userSpaceOnUse"
       gradientTransform="matrix(1.215027,1.531577e-24,1.464684e-23,1.266667,-839.1924,-490.4894)"
       cx="858.04236"
       cy="579.93323"
       fx="858.04236"
       fy="579.93323"
       r="300" />
    <foreignObject
       requiredExtensions="http://ns.adobe.com/AdobeIllustrator/10.0/"
       x="0"
       y="0"
       width="1"
       height="1"
       id="foreignObject3067" />
    <foreignObject
       requiredExtensions="http://ns.adobe.com/AdobeIllustrator/10.0/"
       x="0"
       y="0"
       width="1"
       height="1"
       id="foreignObject2183" />
    <foreignObject
       requiredExtensions="http://ns.adobe.com/AdobeIllustrator/10.0/"
       x="0"
       y="0"
       width="1"
       height="1"
       id="foreignObject3850" />
    <foreignObject
       id="foreignObject22445"
       height="1"
       width="1"
       y="0"
       x="0"
       requiredExtensions="http://ns.adobe.com/AdobeIllustrator/10.0/" />
    <foreignObject
       id="foreignObject22443"
       height="1"
       width="1"
       y="0"
       x="0"
       requiredExtensions="http://ns.adobe.com/AdobeIllustrator/10.0/" />
    <foreignObject
       id="foreignObject22441"
       height="1"
       width="1"
       y="0"
       x="0"
       requiredExtensions="http://ns.adobe.com/AdobeIllustrator/10.0/" />
    <radialGradient
       r="300"
       fy="579.93323"
       fx="858.04236"
       cy="579.93323"
       cx="858.04236"
       gradientTransform="matrix(1.215027,1.531577e-24,1.464684e-23,1.266667,-839.1924,-490.4894)"
       gradientUnits="userSpaceOnUse"
       id="radialGradient22439"
       xlink:href="#linearGradient2893"
       inkscape:collect="always" />
    <linearGradient
       id="linearGradient22433">
      <stop
         id="stop22435"
         offset="0"
         style="stop-color:white;stop-opacity:0;" />
      <stop
         id="stop22437"
         offset="1"
         style="stop-color:black;stop-opacity:0.64583331;" />
    </linearGradient>
    <linearGradient
       id="linearGradient22423">
      <stop
         id="stop22425"
         offset="0"
         style="stop-color:#ffffff;stop-opacity:0.3137255;" />
      <stop
         style="stop-color:#ffffff;stop-opacity:0.25098041;"
         offset="0.19"
         id="stop22427" />
      <stop
         id="stop22429"
         offset="0.60000002"
         style="stop-color:#6b6b6b;stop-opacity:0.1254902;" />
      <stop
         id="stop22431"
         offset="1"
         style="stop-color:#000000;stop-opacity:0.1254902;" />
    </linearGradient>
    <foreignObject
       id="foreignObject25169"
       height="1"
       width="1"
       y="0"
       x="0"
       requiredExtensions="http://ns.adobe.com/AdobeIllustrator/10.0/" />
    <foreignObject
       id="foreignObject25167"
       height="1"
       width="1"
       y="0"
       x="0"
       requiredExtensions="http://ns.adobe.com/AdobeIllustrator/10.0/" />
    <foreignObject
       id="foreignObject25165"
       height="1"
       width="1"
       y="0"
       x="0"
       requiredExtensions="http://ns.adobe.com/AdobeIllustrator/10.0/" />
    <radialGradient
       r="300"
       fy="579.93323"
       fx="858.04236"
       cy="579.93323"
       cx="858.04236"
       gradientTransform="matrix(1.215027,1.531577e-24,1.464684e-23,1.266667,-839.1924,-490.4894)"
       gradientUnits="userSpaceOnUse"
       id="radialGradient25163"
       xlink:href="#linearGradient2893"
       inkscape:collect="always" />
    <linearGradient
       id="linearGradient25157">
      <stop
         id="stop25159"
         offset="0"
         style="stop-color:white;stop-opacity:0;" />
      <stop
         id="stop25161"
         offset="1"
         style="stop-color:black;stop-opacity:0.64583331;" />
    </linearGradient>
    <linearGradient
       id="linearGradient25147">
      <stop
         id="stop25149"
         offset="0"
         style="stop-color:#ffffff;stop-opacity:0.3137255;" />
      <stop
         style="stop-color:#ffffff;stop-opacity:0.25098041;"
         offset="0.19"
         id="stop25151" />
      <stop
         id="stop25153"
         offset="0.60000002"
         style="stop-color:#6b6b6b;stop-opacity:0.1254902;" />
      <stop
         id="stop25155"
         offset="1"
         style="stop-color:#000000;stop-opacity:0.1254902;" />
    </linearGradient>
  </defs>
  <sodipodi:namedview
     inkscape:window-height="844"
     inkscape:window-width="1440"
     inkscape:pageshadow="2"
     inkscape:pageopacity="0.0"
     guidetolerance="10.0"
     gridtolerance="10.0"
     objecttolerance="10.0"
     borderopacity="1.0"
     bordercolor="#666666"
     pagecolor="#ffffff"
     id="base"
     inkscape:zoom="0.83977464"
     inkscape:cx="301.50015"
     inkscape:cy="381.50001"
     inkscape:window-x="-4"
     inkscape:window-y="-4"
     inkscape:current-layer="layer1"
     showgrid="false"
     showguides="true"
     inkscape:guide-bbox="true"
     inkscape:document-rotation="0" />
  <desc
     id="desc22">Coat of Arms of Canton of Freiburg (Fribourg)</desc>
  <g
     inkscape:groupmode="layer"
     id="layer1"
     inkscape:label="Fond écu"
     style="opacity:1">
    <path
       id="path1337"
       d="M 1.5001513,1.49998 L 1.5001513,460.3679 C 1.5001513,626.6785 135.81471,761.5 301.50014,761.5 C 467.18558,761.5 601.50015,626.6785 601.50015,460.3679 L 601.50015,1.49998 L 1.5001513,1.49998 z "
       style="fill:black;fill-opacity:1;stroke:#000000;stroke-opacity:1;stroke-width:3.3;stroke-miterlimit:4;stroke-dasharray:none" />
    <path
       style="fill:none;fill-opacity:1;stroke:#000000;stroke-opacity:1"
       d="M 1.5001513,1.49998 L 1.5001513,460.3679 C 1.5001513,626.6785 135.81471,761.5 301.50014,761.5 C 467.18558,761.5 601.50015,626.6785 601.50015,460.3679 L 601.50015,1.49998 L 1.5001513,1.49998 z "
       id="path5889" />
    <path
       style="fill:none;fill-opacity:1;stroke:#000000;stroke-opacity:1;stroke-width:3.3;stroke-miterlimit:4;stroke-dasharray:none"
       d="M 1.5001513,1.49998 L 1.5001513,460.3679 C 1.5001513,626.6785 135.81471,761.5 301.50014,761.5 C 467.18558,761.5 601.50015,626.6785 601.50015,460.3679 L 601.50015,1.49998 L 1.5001513,1.49998 z "
       id="path18563" />
    <path
       style="fill:#ffffff;fill-opacity:1;stroke:#000000;stroke-opacity:1;stroke-width:3;stroke-miterlimit:4;stroke-dasharray:none"
       d="M 1.5,1.5 L 1.5,82.75 L 217.75,299 L 5.75,511 C 12.920208,553.50911 28.935531,592.97532 51.875,627.4375 L 299.03125,380.28125 L 549.125,630.40625 C 572.3547,596.38921 588.80672,557.36379 596.53125,515.25 L 380.28125,299 L 600.53125,78.75 L 600.53125,1.5 L 515.28125,1.5 L 299,217.75 L 82.75,1.5 L 1.5,1.5 z "
       id="path1488"
       sodipodi:nodetypes="ccccccccccccccc" />
  </g>
  <g
     inkscape:groupmode="layer"
     id="layer2"
     inkscape:label="Meubles"
     style="opacity:1">
    <g
       id="g25173"
       inkscape:label="Fond écu"
       transform="translate(581.6022,605.4773)" />
    <g
       id="g25188"
       inkscape:label="Reflet final"
       style="display:inline"
       transform="translate(581.6022,605.4773)" />
    <g
       id="g25190"
       inkscape:label="Contour final"
       style="display:inline"
       transform="translate(581.6022,605.4773)" />
  </g>
  <g
     inkscape:groupmode="layer"
     id="layer3"
     inkscape:label="Reflet final"
     style="display:inline"
     sodipodi:insensitive="true">
    <path
       style="fill:url(#radialGradient3236);fill-opacity:1"
       d="M 1.5,1.5 L 1.5,460.3679 C 1.5,626.67854 135.81454,761.5 301.49993,761.5 C 467.1854,761.5 601.5,626.67854 601.5,460.3679 L 601.5,1.5 L 1.5,1.5 z "
       id="path2346" />
  </g>
  <g
     inkscape:groupmode="layer"
     id="layer4"
     inkscape:label="Contour final"
     style="display:inline"
     sodipodi:insensitive="true">
    <path
       style="fill:none;fill-opacity:1;stroke:#000000;stroke-width:3;stroke-miterlimit:4;stroke-dasharray:none;stroke-opacity:1"
       d="M 1.5,1.5 L 1.5,460.36794 C 1.5,626.67854 135.81454,761.5 301.49993,761.5 C 467.1854,761.5 601.5,626.67854 601.5,460.36794 L 601.5,1.5 L 1.5,1.5 z "
       id="path3239" />
  </g>
</svg>

<?xml version="1.0" encoding="UTF-8"?>
<svg version="1.0" viewBox="0 0 603 763" xmlns="http://www.w3.org/2000/svg" xmlns:cc="http://creativecommons.org/ns#" xmlns:dc="http://purl.org/dc/elements/1.1/" xmlns:rdf="http://www.w3.org/1999/02/22-rdf-syntax-ns#" xmlns:xlink="http://www.w3.org/1999/xlink">
<metadata>
<rdf:RDF>
<cc:Work rdf:about="">
<dc:format>image/svg+xml</dc:format>
<dc:type rdf:resource="http://purl.org/dc/dcmitype/StillImage"/>
<dc:date/>
<dc:creator>
<cc:Agent>
<dc:title/>
</cc:Agent>
</dc:creator>
<cc:license rdf:resource="http://creativecommons.org/licenses/GPL/2.0/"/>
<dc:coverage/>
<dc:description/>
<dc:subject>
<rdf:Bag/>
</dc:subject>
<dc:language/>
<dc:title/>
</cc:Work>
<cc:License rdf:about="http://creativecommons.org/licenses/GPL/2.0/">
<cc:permits rdf:resource="http://web.resource.org/cc/Reproduction"/>
<cc:permits rdf:resource="http://web.resource.org/cc/Distribution"/>
<cc:requires rdf:resource="http://web.resource.org/cc/Notice"/>
<cc:permits rdf:resource="http://web.resource.org/cc/DerivativeWorks"/>
<cc:requires rdf:resource="http://web.resource.org/cc/ShareAlike"/>
<cc:requires rdf:resource="http://web.resource.org/cc/SourceCode"/>
</cc:License>
</rdf:RDF>
</metadata>
<defs>
<radialGradient id="a" cx="858.04" cy="579.93" r="300" gradientTransform="matrix(1.215 1.5316e-24 1.4647e-23 1.2667 -839.19 -490.49)" gradientUnits="userSpaceOnUse">
<stop stop-color="#fff" stop-opacity=".31373" offset="0"/>
<stop stop-color="#fff" stop-opacity=".25098" offset=".19"/>
<stop stop-color="#6b6b6b" stop-opacity=".12549" offset=".6"/>
<stop stop-opacity=".12549" offset="1"/>
</radialGradient>
</defs>
<desc>Coat of Arms of Canton of Freiburg (Fribourg)</desc>
<g stroke="#000">
<path d="m1.5002 1.5v458.87c0 166.31 134.31 301.13 300 301.13 165.69 0 300-134.82 300-301.13v-458.87h-600z" stroke-width="3.3"/>
<path d="m1.5002 1.5v458.87c0 166.31 134.31 301.13 300 301.13 165.69 0 300-134.82 300-301.13v-458.87h-600z" fill="none"/>
<path d="m1.5002 1.5v458.87c0 166.31 134.31 301.13 300 301.13 165.69 0 300-134.82 300-301.13v-458.87h-600z" fill="none" stroke-width="3.3"/>
<path d="m1.5 1.5v81.25l216.25 216.25-212 212c7.1702 42.509 23.186 81.975 46.125 116.44l247.16-247.16 250.09 250.12c23.23-34.017 39.682-73.042 47.406-115.16l-216.25-216.25 220.25-220.25v-77.25h-85.25l-216.28 216.25-216.25-216.25h-81.25z" fill="#fff" stroke-width="3"/>
</g>
<g>
<path d="m1.5 1.5v458.87c0 166.31 134.31 301.13 300 301.13 165.69 0 300-134.82 300-301.13v-458.87h-600z" fill="url(#a)"/>
<path d="m1.5 1.5v458.87c0 166.31 134.31 301.13 300 301.13 165.69 0 300-134.82 300-301.13v-458.87h-600z" fill="none" stroke="#000" stroke-width="3"/>
</g>
</svg>
